packages/ui-icons/svg/Solid/paperclip.svg

<svg viewBox="0 0 1920 1920" version="1.1" xmlns="http://www.w3.org/2000/svg">
    <path d="M1748.31786,252.722184 C1519.30156,23.7058912 1146.78975,23.8126587 917.88022,252.722184 L125.131513,1045.47089 C44.5220486,1126.18712 0,1233.3817 0,1347.40939 C0,1461.54385 44.5220486,1568.73842 125.131513,1649.34789 C286.563977,1810.78035 567.789579,1810.78035 729.115276,1649.34789 L1446.48613,932.083804 C1550.37091,828.092256 1550.37091,658.865764 1446.27259,554.553914 C1342.17428,450.562367 1172.62748,450.669134 1068.84947,554.660682 L464.865707,1158.64444 L615.941723,1309.61369 L1219.71195,705.736698 C1240.63838,685.023803 1274.59045,684.810268 1295.30334,705.523163 C1316.12301,726.449594 1316.12301,760.401659 1295.41011,781.221322 L578.146027,1498.37864 C497.429795,1579.09487 356.816994,1579.09487 276.100762,1498.37864 C235.742646,1458.02052 213.535005,1404.42324 213.535005,1347.40939 C213.535005,1290.39554 235.742646,1236.79826 276.100762,1196.44014 L1068.84947,403.691433 C1214.48034,258.274095 1451.5042,258.06056 1597.34861,403.691433 C1742.97948,549.322307 1742.97948,786.559698 1597.34861,932.190571 L842.395596,1687.25035 L993.364845,1838.2196 L1748.31786,1083.15982 C1977.22738,854.250294 1977.22738,481.738478 1748.31786,252.722184" stroke="none" stroke-width="1" fill-rule="evenodd"/>
</svg>

<svg viewBox="0 0 1920 1920" version="1.1" xmlns="http://www.w3.org/2000/svg">
    <path d="M1748.318 252.722c-229.016-229.016-601.528-228.91-830.438 0l-792.748 792.749C44.522 1126.187 0 1233.38 0 1347.409c0 114.135 44.522 221.33 125.132 301.939 161.432 161.432 442.658 161.432 603.983 0l717.371-717.264c103.885-103.992 103.885-273.218-.213-377.53-104.099-103.992-273.646-103.885-377.424.107l-603.983 603.983 151.076 150.97 603.77-603.877c20.926-20.713 54.878-20.927 75.591-.214 20.82 20.927 20.82 54.879.107 75.698L578.146 1498.38c-80.716 80.716-221.329 80.716-302.045 0-40.358-40.358-62.566-93.956-62.566-150.97 0-57.013 22.208-110.61 62.566-150.969l792.748-792.749c145.631-145.417 382.655-145.63 528.5 0 145.63 145.631 145.63 382.869 0 528.5l-754.953 755.06 150.969 150.969 754.953-755.06c228.91-228.91 228.91-601.422 0-830.438" stroke="none" stroke-width="1" fill-rule="evenodd"/>
</svg>
